!!!OTL: 91. Koerner's Tod (26. Aug. 1813).
!!!COM: Ludw. Berger.
!!!ODT: 1819
!!!ARE: Europa, Mitteleuropa, Deutschland
!!!SCT: B0091
!!!TXL: @@DE
!!!YEM: Copyright 1995, estate of Helmut Schaffrath.
**kern	**text
*ICvox	*
*Ivox	*
*M4/4	*
*met(c)	*
*clefG2	*
*k[]	*
*a:	*
!LO:TX:a:t=Gehalten und mit Ausdruck.	!
{8e	Bei
8e	Wöh-
8e	-be-
=1	=1
4a	-lin
4a	im
4b	frei-
4b	-en
=2	=2
2.b}	Feld,
{4b	auf
=3	=3
4.cc	Meck-
8cc	-len-
4.dd	-bur-
8cc	-ger
=4	=4
4cc	Grun-
4b	-de,
8r}	.
{8e	Da
8e	ruht
8e	ein
=5	=5
4a	ju-
4a	-gend-
4b	-li-
4b	-cher
=6	=6
2.b}	Held
{4b	an
=7	=7
4.cc	ſei-
8cc	-ner
4.dd	To-
8cc	-des-
=8	=8
4cc	-wun-
4b	-de.
8r}	.
{8b	Er
8b	war
8b	mit
=9	=9
4ee	Lüt-
4ee	-ʒows
4ee	wil-
4ee	-der
=10	=10
2.ee}	Schaar
{4ee	wohl
=11	=11
4.ff	in
8ff	die
4.gg	Schlacht
8ee	ge-
=12	=12
4cc#	-ʒo-
4dd	-gen:
8r}	.
{8d	da
8d	hat
8e	er
=13	=13
4f	friſch
8eL	und
8dJ	.
4e	un-
8f#L	-ver-
8g#J	.
=14	=14
4a	-ʒagt
8bL	die
8ccJ	.
4dd	Frei-
8cc}	-heit,
{8b	die
=15	=15
4ee	Frei-
4ee	-heit
4dd	ein-
8ddL	-ge-
8ccJ	.
=16	=16
(2cc	-ſo-
2b)	.
=17	=17
2a	-gen.
8r}	.
==	==
!!!AGN: Helden -, Ehren -, Gedaechtnis -, Kriegs - Lied
!!!GTL: Helden- und Ehrengedächtnißlieder
!!!ONB: ESAC (Essen Associative Code) Database: BOEHME
!!!AMT: simple quadruple
!!!AIN: vox
!!!EED: Helmut Schaffrath
!!!EEV: 1.0
!!@@COMMENT:"Gedicht von Friedrich Förſter 1815."
!!@@END:
!!Text: Friedrich Foerster
!!!URL-scan: https://archive.org/details/BoehmeVtLieder1895/page/n101/mode/2up
!!!ENC: Anna Maria Matuszewska
!!!EEV: 2024/17/06
*-	*-
